X:1
T:Title
%%score 1 ( 2 3 )
L:1/8
M:4/4
K:C
V:1 treble nm="Choir Aahs, Staff"
V:2 bass nm="Choir Aahs, Staff-1"
V:3 bass 
V:1
 C2 [B,D]2 [CE]3 [CE] | [CE]2 [CF]2 [DG]4 | [EA]2 [GB]2 [Gc]2 [GB]2 | [GA]2 [^FB]2 G4 | %4
w: By~Walter~Cecil~Macfarren~(1826\-1905) * * *||||
 [DG]2 [DG]2 [FA]3 [GB] | [Gc]2 [Fd]2 [EG]4 | [Cc]2 [EA]2 [DF]3 [DF] | [DG]2 [CE]2 D4 | %8
w: ||||
 C2 D2 E3 E | E2 [CF]2 [CG]4 | [CA]2 [DB]2 [Cc]2 [EG]2 | [Ge]2 [Fd]2 [Ec]4 |] %12
w: ||||
V:2
 [E,G,]2 G,2 C3 C | [B,C]2 [A,C]2 [G,B,]4 | C2 D2 [E,C]2 [D,D]2 | [C,E]2 DC [G,B,]4 | %4
 [G,B,]2 [G,B,]2 [F,C]3 [F,D] | [E,C]2 [B,,G,]2 [C,G,]4 | [E,G,]2 [C,A,]2 [D,A,]3 [C,A,] | %7
 [B,,G,]2 [C,G,]2 [G,B,]4 | C2 C2 C3 C | [_B,C]2[K:bass] [A,C]2 [E,B,]4 | %10
 [F,A,]2 [F,G,]2 [E,G,]2 [C,G,]2 | [G,,A,]2 [G,,B,]2 [C,C]4 |] %12
V:3
 x8 | x8 | x8 | z2 D,2 z4 | x8 | x8 | x8 | x8 | x8 | x2[K:bass] x6 | x8 | x8 |] %12

